svgs/regular/snake.svg

<svg xmlns="http://www.w3.org/2000/svg" viewBox="0 0 640 512"><!-- Font Awesome Pro 6.0.0-alpha2 by @fontawesome - https://fontawesome.com License - https://fontawesome.com/license (Commercial License) --><path d="M512 248C503.125 248 496 255.125 496 264C496 272.875 503.125 280 512 280S528 272.875 528 264C528 255.125 520.875 248 512 248ZM611.75 164.875C515 130 514 128 496 128C461.625 128 430.875 150.75 420.25 183.5C362.375 202.125 320 255.875 320 320V368C320 376.875 312.875 384 304 384S288 376.875 288 368V149.75C288 94.25 246.5 0 144 0C64.5 0 0 64.5 0 144V303.5C0 367.875 11.5 431 34 491.25C38.75 503.875 50.5 512 64 512S89.25 503.875 94 491.25C116.5 431 128 367.875 128 303.5V144C128 135.125 135.125 128 144 128S160 135.125 160 144V362.25C160 417.75 201.5 512 304 512C383.375 512 448 447.375 448 368V336.875C461.5 347 478.25 353 495.875 353C514.125 353 517.25 350.125 611.375 317.375C628.375 312.375 640 296.75 640 279V203.125C640 185.625 628.5 170.125 611.75 164.875ZM592 271C498.625 305 503.5 304 496 304C482.625 304 470.25 294.875 466 281.75L460.25 264.25C426.75 265.625 400 293 400 326.875V368C400 493.25 208 499.875 208 362.25V147.625C208 115.75 186.25 86.125 154.875 80.875C114.75 74.25 80 105.125 80 144V303.5C80 345.5 74.625 387 64 427.375C53.375 387 48 345.5 48 303.5V147.5C48 73.125 109.875 48 144 48C199 48 240 95.875 240 149.75V364.375C240 455.25 368 451.5 368 368V320C368 259.875 415.875 235.375 435 229.25L458.375 221.625L466 198.25C470.25 185.125 482.625 176 496 176C503.5 176 498.625 175 592 209V271ZM496 216C496 224.875 503.125 232 512 232S528 224.875 528 216S520.875 200 512 200S496 207.125 496 216Z"/></svg>

<svg xmlns="http://www.w3.org/2000/svg" viewBox="0 0 640 512"><!--! Font Awesome Pro 6.0.0-alpha3 by @fontawesome - https://fontawesome.com License - https://fontawesome.com/license (Commercial License) --><path d="M512 248c-8.875 0-16 7.125-16 16c0 8.875 7.125 16 16 16s16-7.125 16-16C528 255.1 520.9 248 512 248zM611.8 164.9C515 130 513.1 128 496 128c-34.38 0-65.13 22.75-75.75 55.5C362.4 202.1 320 255.9 320 319.1V368c0 8.875-7.125 16-16 16S288 376.9 288 368V149.8C288 94.25 246.5 0 144 0C64.5 0 0 64.5 0 144v159.5c0 64.38 11.5 127.5 33.1 187.7C38.75 503.9 50.5 512 64 512s25.25-8.125 29.1-20.75C116.5 431 128 367.9 128 303.5V144C128 135.1 135.1 128 144 128S160 135.1 160 144v218.2C160 417.8 201.5 512 304 512c79.38 0 144-64.63 144-144v-31.12c13.5 10.12 30.25 16.12 47.88 16.12c18.25 0 21.38-2.875 115.5-35.63C628.4 312.4 640 296.8 640 279V203.1C640 185.6 628.5 170.1 611.8 164.9zM592 271C498.6 305 503.5 304 496 304c-13.38 0-25.75-9.125-30-22.25l-5.75-17.5C426.8 265.6 400 293 400 326.9V368c0 125.2-192 131.9-192-5.75V147.6C208 115.8 186.2 86.12 154.9 80.88C114.8 74.25 80 105.1 80 144v159.5c0 42-5.375 83.5-16 123.9C53.38 387 48 345.5 48 303.5v-156C48 73.12 109.9 48 144 48c55 0 96 47.88 96 101.8v214.6c0 90.87 128 87.13 128 3.625V320c0-60.13 47.88-84.62 67-90.75l23.38-7.625l7.625-23.38C470.2 185.1 482.6 176 496 176c7.5 0 2.625-1 96 33V271zM496 216c0 8.875 7.125 16 16 16s16-7.125 16-16s-7.125-16-16-16S496 207.1 496 216z"/></svg>
